Obsidian-SemiLight/actions/24s/key-enter.svg

<svg viewBox="0 0 24 24" xmlns="http://www.w3.org/2000/svg"><path d="m10 4v1 6h-6v1 8h1 15v-1-15h-9zm1 1h8v14h-14v-7h5 1zm5 1v9h-4v-2l-3 2.5 3 2.5v-2h5v-1-9z" fill="#4d4d4d"/></svg>

<svg xmlns="http://www.w3.org/2000/svg" viewBox="0 0 24 24">
  <defs id="defs3051">
    <style type="text/css" id="current-color-scheme">
      .ColorScheme-Text {
        color:#4d4d4d;
      }
      </style>
  </defs>
 <path style="fill:currentColor;fill-opacity:1;stroke:none" 
     d="M 10 4 L 10 5 L 10 11 L 4 11 L 4 12 L 4 20 L 5 20 L 20 20 L 20 19 L 20 4 L 11 4 L 10 4 z M 11 5 L 19 5 L 19 19 L 5 19 L 5 12 L 10 12 L 11 12 L 11 5 z M 16 6 L 16 15 L 12 15 L 12 13 L 9 15.5 L 12 18 L 12 16 L 17 16 L 17 15 L 17 6 L 16 6 z "
     class="ColorScheme-Text"
     />
</svg>
